X:1
T: Miss Crawford's Reel
C:
R:Reel
Q: 232
K:A
M:4/4
L:1/8
|:E|A2 GA FA EA|FA EA ce fa|eA fA gA aA|Bc BA AG FE|
A2 GA FA EA|FA EA ce fa|ec fa ec af|ec dB A2 A2|
ag ab ag fe|dc de fe dc|BE cE dE cE|Bc BA AG FE|
ag ab ag fe|dc de fe dc|Bc de fg af|ea gb a2 a:|
